!!!!SEGMENT: pl-kk--kk-i-8--009_anonim--placare-christe-servulis.krn
!!!id: 16xx:1150
!!!COM: Anonim
!!!COM-rism: pe30004985
!!!CDT:
!!!CNT:
!!!OTL: Placare Christe servulis
!!!PDT:
!!!SMS-siglum: PL-Kk
!!!SMS-shelfmark: Kk.I.8
!!!NIFC-rismID: 1001148471
!!!URL-scan: http://repozytorium.nifc.pl/skany/pl-kk-nut--i-8
!!!ONB-nifc: UWAGA: A (skan 0006), T1 (0029), T2 (0053), B (0076). Następny utwór: Audi benigne conditor
!!!SMS-variant:
!!!SMS-altvar:
**kern	**text	**text	**kern	**text	**text	**kern	**text	**text	**kern	**text	**text	**text
*part4	*part4	*part4	*part3	*part3	*part3	*part2	*part2	*part2	*part1	*part1	*part1	*part1
*staff4	*staff4	*staff4	*staff3	*staff3	*staff3	*staff2	*staff2	*staff2	*staff1	*staff1	*staff1	*staff1
*group1	*	*	*group1	*	*	*group1	*	*	*group1	*	*	*
*	*verse1	*verse3	*	*verse1	*verse3	*	*verse1	*verse3	*	*verse1	*verse3	*
*I"BASSVS.	*	*	*I"TENOR 2dus.	*	*	*I"Tenore 1mo	*	*	*I"alto.	*	*	*
*I'B	*	*	*I'T 2	*	*	*I'T 1	*	*	*I'A	*	*	*
*clefF4	*	*	*clefC4	*	*	*clefC4	*	*	*clefC3	*	*	*
*k[b-]	*	*	*k[b-]	*	*	*k[b-]	*	*	*k[b-]	*	*	*
*M3/1	*	*	*M3/1	*	*	*M3/1	*	*	*M3/1	*	*	*
*all\right	*	*	*all\right	*	*	*all\right	*	*	*	*	*	*
=1	=1	=1	=1	=1	=1	=1	=1	=1	=1	=1	=1	=1
1r	.	.	1r	.	.	1re	.	.	1rg	.	.	.
1r	.	.	1r	.	.	1re	.	.	1rg	.	.	.
1G	1_Pla-	3_A-	1B-	1_Pla-	3_A-	1d	1_Pla-	3_A-	1g	1_Pla-	3_A-	7_DE-
=2	=2	=2	=2	=2	=2	=2	=2	=2	=2	=2	=2	=2
0F#X	-ca-	-poſ-	0A	-ca-	-poſ-	0d	-ca-	-poſ-	0d	-ca-	-pos-	-O
1G	-re	-to-	1B-	-re	-to-	1d	-re	-to-	1g	-re	-to-	Pa-
=3	=3	=3	=3	=3	=3	=3	=3	=3	=3	=3	=3	=3
0C	Chriſ-	-li	0c	Chriſ-	-li	0e-X	Chriſ-	-li	0g	X-	-li-	-tri
1G	-te	cum	1B-	-te	cum	1d	-te	cum	1g	-te	-cum	sit
=4	=4	=4	=4	=4	=4	=4	=4	=4	=4	=4	=4	=4
1.D	Ser-	Va-	1.A	Ser-	Va-	1.d	Ser-	Va-	1.f#X	Ser-	Va-	glo-
*	*	*	*2\right	*	*	*2\right	*	*	*2\right	*	*	*
2D/	-uu-	-ti-	2A\	-uu-	-ti-	2d\	-uu-	-ti-	2f#\	-vu-	-ti-	-tri-
1D	-lis	-bus	1A	-lis	-bus	1d	-lis	-bus	1f#	-lis	-b(us)	-a
=5	=5	=5	=5	=5	=5	=5	=5	=5	=5	=5	=5	=5
1rD	.	.	1r	.	.	1r	.	.	1rg	.	.	.
1D	qui-	a-	1d	qui-	a-	1A	qui-	a-	1fn	qui-	a-	Na-
1D	-bus	-pud	1d	-bus	-pud	1A	-bus	-pud	1f	-bus	-pud	-to-
=6	=6	=6	=6	=6	=6	=6	=6	=6	=6	=6	=6	=6
1G	Pa-	Se-	1d	Pa-	Se-	1B-	Pa-	Se-	1g	Pa-	Se-	-que
1E-X	-tris	-ue-	1e-X	-tris	-ue-	1B-	-tris	-ue-	1g	-tris	-ve-	Pa-
1BB-	cle-	-rum	1d	cle-	-rum	1B-	cle-	-rum	1f	cle-	-rum	-tris
=7	=7	=7	=7	=7	=7	=7	=7	=7	=7	=7	=7	=7
1.F	-men-	iu-	1.c	-men-	iu-	1.A	-men-	iu-	1.f	-men-	Ju-	U-
*2\right	*	*	*	*	*	*	*	*	*	*	*	*
2F\	-ti-	-di-	2c\	-ti-	-di-	2A/	-ti-	-di-	2f\	-ti-	-di-	-ni-
1F	-am	-cem	1c	-am	-cem	1A	-am,	-cem	1f	-am,	-cem,	-co,
=8	=8	=8	=8	=8	=8	=8	=8	=8	=8	=8	=8	=8
1D	tu-	ve-	1d	tu-	ve-	1d	tu-	Ve-	1f	Tu-	Ve-	San-
1D	-ae	-ris	1A	-ae	-ris	1d	-ae	-ris	1f	-ae	-ris	-cto
2E-X\	ad	re-	2G/	ad	re-	2c\	ad	re-	2e-X\	ad	re-	si-
2F\	tri-	-o-	2A/	.	-o-	2c\	Tri-	-o-	2e-\	Tri-	-o-	-mul
=9	=9	=9	=9	=9	=9	=9	=9	=9	=9	=9	=9	=9
1.G	-bu-	.	(<1.B-	Tri-	.	1.B-	-bu-	.	1.d	-bu-	.	Pa-
2F\	.	.	2A/)	.	.	4c\	.	.	4e-X\	.	.	.
.	.	.	.	.	.	4d\	.	.	4f\	.	.	.
1E-X	.	.	1G	-bu-	.	1e-X	-nal	.	1g	-nal	rum	.
=10	=10	=10	=10	=10	=10	=10	=10	=10	=10	=10	=10	=10
!	!	!	!	!	!	!LO:SIC:v:s=1e-	!	!	!	!	!	!
1C,<	-nal	-rum	1c	-nal	-rum	1e	gra-	-rum	(1e-X	Gra-	fle-	-ra-
1.GG	gra-	fle-	1.c	gra-	fle-	1.d	.	fle-	1.g)	.	.	.
!	!	!	!LO:N:acc=#	!	!	!	!	!	!	!	!	!
2GG/	-ti-	-ti-	2Bn\	-ti-	-ti-	2d\	-ti-	-ti-	2d\	-ti-	-ti-	-cli-
=11	=11	=11	=11	=11	=11	=11	=11	=11	=11	=11	=11	=11
0.C	-ae	-bus	0.c	-ae	-bus	0.c	-ae	-bus	0.en,<	-ae	-bus	-to,
=12	=12	=12	=12	=12	=12	=12	=12	=12	=12	=12	=12	=12
!	!	!	!LO:N:vis=0	!	!	!LO:N:vis=0	!	!	!	!	!	!
1C	Pa-	ex-	0.r	.	.	0.r	.	.	1en	Pa-	ex-	in
1D	-tro-	.	.	.	.	.	.	.	1f	-tro-	.	Sem-
1E	-na	-po-	.	.	.	.	.	.	1g	-na	-po-	-pi-
=13	=13	=13	=13-	=13	=13	=13	=13	=13	=13	=13	=13	=13
0F	Vir-	-ſci-	1A	Pa-	ex-	1c	Pa-	ex-	0a	Vir-	-sci-	-ter-
.	.	.	1B-	-tro-	.	1d	-tro-	.	.	.	.	.
1F	-go	-te	1c	-na	-po-	1e	-na	-po-	1a	-go	-te	-na
=14	=14	=14	=14	=14	=14	=14	=14	=14	=14	=14	=14	=14
*	*	*	*	*	*	*	*	*	*	*ij	*	*ij
1BB-	Pa-	ex-	0d	Vir-	-ſci-	0f	Vir-	-ſci-	1d	Pa-	ex-	in
1C	-ro-	.	.	.	.	.	.	.	1e	-tro-	.	Sem-
1D	-na	-po-	1d	-go	-te	1f	-go	-te	1f	-na	po-	-pi-
=15-	=15	=15	=15	=15	=15	=15	=15	=15	=15	=15	=15	=15
*	*	*	*	*ij	*ij	*	*ij	*ij	*	*	*	*
0E-X	Vir-	-ſci-	1G	Pa-	ex-	1B-	Pa-	ex-	0g	Vir-	-sci-	-ter-
.	.	.	1A	-tro-	-po-	1c	-tro-	-po-	.	.	.	.
1D	-go	-te	1B-	-na	-ſci-	1d	-na	-ſci-	1f	-go	-te	-na
*	*	*	*	*	*	*	*	*	*	*Xij	*	*Xij
=16	=16	=16	=16	=16	=16	=16	=16	=16	=16	=16	=16	=16
!	!	!	!	!	!	!	!	!	!LO:SIC:v:s=0e-	!	!	!
1.C	Vir-	in-	0.c	Vir-	-te	1.e-X	Vir-	-te	(0e	Vir-	in-	sae-
*	*	*	*	*	*	*	*	*Xij	*	*	*	*
2BB-/	.	.	.	.	.	(2d\	.	in-	.	.	.	.
*	*	*	*	*	*Xij	*	*Xij	*	*	*	*	*
1AA	.	.	.	.	.	1c)	.	.	1f)	.	.	.
=17	=17	=17	=17	=17	=17	=17	=17	=17	=17	=17	=17	=17
1BB-	-go	-dul-	1B-	-go	in-	1d	-go	-dul-	1g	-go	-dul-	.
*	*	*	*	*Xij	*	*	*	*	*	*	*	*
1.D	poſ-	-gen-	1.A	poſ-	-dul-	1.d	poſ-	-gen-	1.g	pos-	-gen-	-cu-
2D/	-tu-	-ti-	2A\	-tu-	-gen-	2d\	-tu-	-ti-	2f#X\	-tu-	-ti-	.
=18	=18	=18	=18	=18	=18	=18	=18	=18	=18	=18	=18	=18
!	!	!	!LO:N:acc=#	!	!	!	!	!	!	!	!	!
0.GGl;;	-lat	-am	0.Bnl;;	-lat	-tiam	0.dl;<	-lat	-am	0.gl	-lat.	-am	-la.
!	!	!	!	!	!	!	!	!	!LO:LB:g=original	!	!	!
=19||	=19||	=19||	=19||	=19||	=19||	=19||	=19||	=19||	=19||	=19||	=19||	=19||
!LO:TX:t=P:problem:dopisany fragment "Amen"	!	!	!LO:TX:t=P:problem:dopisany fragment "Amen"	!	!	!LO:TX:t=P:problem:dopisany fragment "Amen"	!	!	!LO:TX:t=P:problem:brak fragmentu "Amen"	!	!	!
1.BB-	A-	.	1.B-	A-	.	1.d	A-	.	0.ryy	.	.	.
*	*	*	*	*	*	*2\left	*	*	*	*	*	*
4C/	.	.	2A/	.	.	2c\	.	.	.	.	.	.
4D/	.	.	.	.	.	.	.	.	.	.	.	.
1E	.	.	1G	.	.	1B-	.	.	.	.	.	.
=20-	=20	=20	=20-	=20	=20	=20	=20	=20	=20	=20	=20	=20
1C	.	.	0G	.	.	1A	.	.	0.ryy	.	.	.
0D	.	.	.	.	.	0A	.	.	.	.	.	.
!	!	!	!LO:N:vis=1.	!	!	!	!	!	!	!	!	!
.	.	.	1F	.	.	.	.	.	.	.	.	.
=21-	=21	=21	=21-	=21	=21	=21-	=21	=21	=21	=21	=21	=21
0.GGl;<	-men	.	0.Gl	-men	.	0.B-l;;	-men	.	0.ryy	.	.	.
!LO:LB:g=original	!	!	!LO:LB:g=original	!	!	!LO:LB:g=original	!	!	!	!	!	!
=22||	=22||	=22||	=22||	=22||	=22||	=22||	=22||	=22||	=22||	=22||	=22||	=22||
*M3/1	*	*	*M3/1	*	*	*M3/1	*	*	*M3/1	*	*	*
*	*	*	*	*	*	*	*	*	*rscale:1/2	*	*	*
*	*verse2	*verse4	*	*verse2	*verse4	*	*verse2	*verse4	*	*verse2	*verse4	*
1G	2_Et	4_Vos	1B-	2_Et	4_Vos	1d	2_Et	4_Vos	1g	2_Et	4_Vos	.
1G	vos	pur-	1B-	vos	pur-	1G	vos	pur-	1.d	vos	pur-	.
1F	be-	-pu-	1A	be-	-pu-	(<1A	be-	-pu-	.	.	.	.
.	.	.	.	.	.	.	.	.	2d\	be-	-pu-	.
=23	=23	=23	=23	=23	=23	=23	=23	=23	=23	=23	=23	=23
1E-X	-a-	-ra-	1G	-a-	-ra-	1B-)	-a-	-ra-	1e-X	-a-	-ra-	.
1C	-ta	-ti	1A	-ta	-ti	1c	-ta	-ti	1e-,<	-ta	-ti	.
1BB-	per	Mar-	(2B-\	per	Mar-	1d	per	Mar-	1g	per	Mar-	.
.	.	.	2G\)	.	.	.	.	.	.	.	.	.
=24	=24	=24	=24	=24	=24	=24	=24	=24	=24	=24	=24	=24
1D	no-	-ty-	1d	no-	-ty-	1A	no-	-ty-	1f#X	no-	-ty-	.
1D	-uem	-res	1A	-uem	-res	1A	-vem	-res	1f#,<	-vem,	-res,	.
1BB-	diſ-	vos	1B-	diſ-	vos	1d	diſ-	Vos	1fn	dis-	vos	.
=25	=25	=25	=25	=25	=25	=25	=25	=25	=25	=25	=25	=25
1.BB-	-tin-	can-	0B-	-tin-	Can-	1.d	-tin-	can-	1.f	-tin-	can-	.
*	*	*	*	*	*	*2\right	*	*	*	*	*	*
2C/	.	.	.	.	.	2c\	-cta	-di-	2e,<\	-cta	-di-	.
*	*	*	*	*	*	*	*	*	*	*ij	*	*
2D\	.	.	(2F/	-cta	-di-	1B-	gy-	-da-	1d	dis-	-da-	.
2E-X\	.	.	2G/)	.	.	.	.	.	.	.	.	.
=26	=26	=26	=26	=26	=26	=26	=26	=26	=26	=26	=26	=26
1.F	.	.	2A\	gy-	-da-	1.A,<	-ros	-ti	1.c	-tin-	-ti,	.
.	.	.	2B-\	.	.	.	.	.	.	.	.	.
.	.	.	2c\	.	.	.	.	.	.	.	.	.
2G\	.	.	2G/	.	.	2B-\	diſ-	Vos	2c,<\	-cta	can-	.
*	*	*	*	*	*	*	*	*	*	*Xij	*	*
2F\	.	.	[y1A	.	.	2A\	-tin-	can-	2d\	gy-	.	.
!	!	!	!	!	!	!	!	!	!LO:SIC:v:s=2e-	!	!	!
2E-X\	.	.	.	.	.	2G\	-cta	-di-	2e\	.	-di-	.
=27	=27	=27	=27	=27	=27	=27	=27	=27	=27	=27	=27	=27
!	!	!	!LO:N:xstem:cue:vis=4	!	!	!	!	!	!	!	!	!
1.D	-cta	-di-	2A\]	.	.	1.F	gy-	-da-	2f\	.	-da-	.
.	.	.	4B-\	.	.	.	.	.	2g\	.	.	.
.	.	.	4c\	.	.	.	.	.	.	.	.	.
.	.	.	0d	.	.	.	.	.	2f\	.	.	.
!	!	!	!	!	!	!	!	!	!LO:SIC:v:s=2e-	!	!	!
2C/	.	-da-	.	.	.	4G/	.	.	2e\	.	.	.
.	.	.	.	.	.	4A/	.	.	.	.	.	.
1BB-	gy-	-ti	.	.	.	2B-/	.	.	2d\	.	.	.
.	.	.	.	.	.	2A/	.	.	2c\	.	.	.
=28	=28	=28	=28	=28	=28	=28	=28	=28	=28	=28	=28	=28
1E-X	-ros	prae-	1c	-ros	ti	2G/	.	.	2e-X\	-ros	-ti	.
.	.	.	.	.	.	2B-\	-ros	-ti	2d\	.	.	.
1.F	a-	.	1.c	a-	-prae-	1.B-	a-	prae-	1.c	a-	prae-	.
2F\	-gmi-	-mi-	2c\	-gmi-	-mi-	2A\	-gmi-	-mi-	2f\	-gmi-	-mi-	.
=29	=29	=29	=29	=29	=29	=29-	=29	=29	=29	=29	=29	=29
0.BB-	-na	-o	0.d	-na	-o	0.B-	-na	-o	0.fn,<	-na,	-o;	.
=30	=30	=30	=30	=30	=30	=30	=30	=30	=30	=30	=30	=30
1BB-	an-	Con-	1B-	an-	Con-	1d	an-	Con-	1fn	an-	Con-	.
1F	-ti-	-feſ-	1A	-ti-	-feſ-	1c	-ti-	-feſ-	1f	-ti-	-feſ-	.
1D	-qua	-si-	1B-	-qua	-si-	1d	-qua	-si-	1f	-qua	-si-	.
=31	=31	=31	=31	=31	=31	=31	=31	=31	=31	=31	=31	=31
0E-X	cum	-o-	0G	cum	-o-	0B-	cum	-o-	0e-X	cum	-o-	.
1C	prae-	-nis	1A	prae-	-nis	1c	prae-	-nis,	1e-	prae-	-nis,	.
=32	=32	=32	=32	=32	=32	=32	=32	=32	=32	=32	=32	=32
1.D	-ſen-	e-	1.F#X	-ſen-	e-	2.A/	-ſen-	e-	1.d	-sen-	e-	.
.	.	.	.	.	.	4A/	-ti-	-xu-	.	.	.	.
.	.	.	.	.	.	1A	-bus	-les	.	.	.	.
2D/	-ti-	-xu-	2F#/	-ti-	-xu-	.	.	.	2d\	-ti-	-xu-	.
1D	-bus	-les	1F#	-bus	-les	1A	fu-	Vo-	1d	-b(us)	-les	.
=33	=33	=33	=33	=33	=33	=33	=33	=33	=33	=33	=33	=33
1D	fu-	Vo-	1F	fu-	Vo-	2A/	-tu-	-ca-	1r	.	.	.
.	.	.	.	.	.	2G/	.	.	.	.	.	.
2D/	-tu-	-ca-	2F/	-tu-	-ca-	1.F	-ra	-te	1d	fu-	Vo-	.
2C/	.	.	2E/	.	-te	.	.	.	.	.	.	.
1.BB-	-ra	-te	[y1D	-ra	Nos	.	.	.	2d\	-tu-	-ca-	.
.	.	.	.	.	.	4G/	ma-	Nos	2c\	-ra	-te	.
.	.	.	.	.	.	4A/	.	.	.	.	.	.
=34-	=34	=34	=34	=34	=34	=34	=34	=34	=34	=34	=34	=34
!	!	!	!LO:N:xstem:cue:vis=4	!	!	!	!	!	!	!	!	!
.	.	.	2D/]	.	.	0B-	.	.	1.B-X	da-	nos	.
!	!	!	!LO:SIC:v:s=4E-	!	!	!	!	!	!	!	!	!
4C/	Ma-	Nos	4E/	ma-	.	.	.	.	.	.	.	.
4D/	.	.	4F/	.	.	.	.	.	.	.	.	.
0E-X	.	.	0G	.	.	.	.	.	.	.	.	.
.	.	.	.	.	.	.	.	.	4cL/	.	.	.
.	.	.	.	.	.	.	.	.	4dJ/	.	.	.
.	.	.	.	.	.	1G.	-la	.	[<1e-X	.	.	.
=35	=35	=35	=35	=35	=35	=35-	=35	=35	=35	=35	=35	=35
!	!	!	!LO:SIC:v:s=1.E-	!	!	!	!	!	!	!	!	!
1.C,<	-la	.	1.E	-la	.	.	.	.	1e-]	.	.	.
.	.	.	.	.	.	2c\	fu-	Vo-	.	.	.	.
.	.	.	.	.	.	2c\	-tu-	-ca-	1.c,<	-mna	.	.
2F\	fu-	vo-	2A/	fu-	Vo-	2B-\	-ra	-te	.	.	.	.
2F\	-tu-	-ca-	2A/	-tu-	-ca-	1.A	ma-	Nos	.	.	.	.
2E\	-ra	-te	2G/	-ra	-te	.	.	.	2f\	fu-	in	.
=36	=36	=36	=36	=36	=36	=36-	=36	=36	=36	=36	=36	=36
1.D	ma-	Nos	1.F	ma-	Nos	.	.	.	2f\	-tu-	pa-	.
.	.	.	.	.	.	4B-\	.	.	2e\	-ra	-tri-	.
.	.	.	.	.	.	4c\	.	.	.	.	.	.
.	.	.	.	.	.	0d	.	.	(1.d	da-	-am,	.
4E\	.	.	4G/	.	.	.	.	.	.	.	.	.
4F\	.	.	4A/	.	.	.	.	.	.	.	.	.
1G	.	.	1B-	.	.	.	.	.	.	.	.	.
.	.	.	.	.	.	.	.	.	2e\)	.	.	.
=37	=37	=37	=37	=37	=37	=37	=37	=37	=37	=37	=37	=37
1F	-la	in	1A	-la	in	1d	-la	in	(2f\	-mna	in	.
.	.	.	.	.	.	.	.	.	2g\)	.	.	.
1.A	pel-	Pa-	1.A	pel-	Pa-	1.d	pel-	Pa-	1.en	pel-	Pa-	.
!	!	!	!	!	!	!LO:TX:a:t=P:problem:# above	!	!	!	!	!	!
2A\	-li-	-tri-	2A/	-li-	-tri-	2c#X\	-li-	-tri-	2e\	-li-	-tri-	.
=38	=38	=38	=38	=38	=38	=38	=38	=38	=38	=38	=38	=38
1.D	-te	-am	1A	-te	-am	2d\	-te	-am	1.d,	-te	-am	.
.	.	.	.	.	.	2A\	fu-	Vo-	.	.	.	.
.	.	.	1d	fu-	Vo-	2A\	-tu-	-ca-	.	.	.	.
2BB-/	fu-	vo-	.	.	.	2B-\	-ra	-te	2d\	fu-	Vo-	.
2C/	-tu-	-ca-	2c\	-tu-	-ca-	1G.	Ma-	Nos	2e\	.	.	.
2D/	-ra	-te	2c\	-ra	-te	.	.	.	2f\	.	.	.
=39	=39	=39	=39	=39	=39	=39-	=39	=39	=39	=39	=39	=39
1.E	ma-	Nos	2B-\	ma-	Nos	.	.	.	1.g	-tu-	-ca-	.
.	.	.	2A\	.	.	4A\	.	.	.	.	.	.
.	.	.	.	.	.	4B-\	.	.	.	.	.	.
.	.	.	2G/	.	.	1.c	.	.	.	.	.	.
2D/	.	.	4A/	.	.	.	.	.	2f\	.	.	.
.	.	.	4B-/	.	.	.	.	.	.	.	.	.
1C	.	.	1c	.	.	.	.	.	1e	-ra	-te	.
.	.	.	.	.	.	2B-\	.	.	.	.	.	.
=40	=40	=40	=40	=40	=40	=40	=40	=40	=40	=40	=40	=40
1.D	.	.	1.F	.	in	0A	.	.	1f	da-	nos	.
.	.	.	.	.	.	.	.	.	1d	.	.	.
2C/	.	.	4G/	.	.	.	.	.	.	.	.	.
.	.	.	4A/	.	.	.	.	.	.	.	.	.
!	!	!	!LO:LB:g=original	!	!	!	!	!	!	!	!	!
2BB-/	.	.	(2B-X\	-la	.	(2G/	-la	in	0g	-mna	in	.
2AA/	-la	.	2c\)	.	.	2A/)	.	.	.	.	.	.
=41-	=41	=41	=41	=41	=41	=41	=41	=41	=41-	=41	=41	=41
1GG	pel-	in	0d	pel-	Pa-	1B-	pel-	Pa-	.	.	.	.
1.D	.	Pa-	.	.	.	1.A	.	.	1.g	pel-	Pa-	.
.	.	.	1d	-li-	-tri-	.	.	.	.	.	.	.
2D/	-li-	-tri-	.	.	.	2A\	-li-	-tri-	2f#X\	-li-	-tri-	.
=42-	=42	=42	=42-	=42	=42	=42-	=42	=42	=42-	=42	=42	=42
!	!	!	!	!	!	!LO:N:acc=#	!	!	!	!	!	!
0.GGl;;	-te	-am	0.dl;;	-te	-am	0.Bnl;;	-te	-am	0.gl	-te	-am	.
!LO:LB:g=original	!	!	!	!	!	!LO:LB:g=original	!	!	!LO:LB:g=original	!	!	!
=43||	=43||	=43||	=43||	=43||	=43||	=43||	=43||	=43||	=43||	=43||	=43||	=43||
*M4/4	*	*	*M4/4	*	*	*M4/4	*	*	*M4/4	*	*	*
*met(c)	*	*	*met(c)	*	*	*met(c)	*	*	*met(c|)	*	*	*
*	*verse5	*	*	*verse5	*	*	*verse5	*	*rscale:1	*verse5	*	*
4r	.	.	4r	.	.	4r	.	.	4r	.	.	.
4GG/	5_Cho-	.	4B-\	5_Cho-	.	4d\	5_Cho-	.	4d\	5_Cho-	.	.
4G\	-re-	.	4B-\	-re-	.	4d\	-re-	.	4g\	-rē-	.	.
4F\	-a	.	4A\	-a	.	4d\	-a	.	4a\	-a	.	.
=44	=44	=44	=44	=44	=44	=44	=44	=44	=44	=44	=44	=44
4E-X\	caſ-	.	4B-\	caſ-	.	4e-X\	caſ-	.	4g\	cas-	.	.
4C/	-ta	.	4c\	-ta	.	4e-\	-ta	.	4g\	-ta	.	.
4.D/	Vir-	.	4.A\	Vir-	.	4.d\	Vir-	.	4.f#X\	Vir-	.	.
8D/	-gi-	.	8A\	-gi-	.	8d\	-gi-	.	8f#\	-gi-	.	.
=45	=45	=45	=45	=45	=45	=45	=45	=45	=45	=45	=45	=45
!	!	!	!	!	!	!	!	!	!LO:SIC:v:s=4f#	!	!	!
4D/	-num	.	4A\	-num	.	4d\	-num	.	4f,<\	-num,	.	.
4BB-/	et	.	4B-\	et	.	4d\	et	.	4fn\	et	.	.
4C/	quos	.	8G\L	quos	.	4c\	quos	.	4e-X\	quos	.	.
.	.	.	8A\J	.	.	.	.	.	.	.	.	.
4D/	e-	.	4B-\	e-	.	4B-\	e-	.	4f\	e-	.	.
=46	=46	=46	=46	=46	=46	=46	=46	=46	=46	=46	=46	=46
4E-X\	-re-	.	8e-X\L	-re-	.	4.B-\	-re-	.	4g\	-re-	.	.
.	.	.	8d\J	.	.	.	.	.	.	.	.	.
4F\	-mus	.	4c\	-mus	.	.	.	.	4f\	-m(us)	.	.
.	.	.	.	.	.	8A\	-mus	.	.	.	.	.
4.BB-/	in-	.	4.d\	in-	.	4.B-\	in-	.	4.f\	in-	.	.
8BB-/	-co-	.	8d\	-co-	.	8B-\	-co-	.	8f\	-co-	.	.
=47	=47	=47	=47	=47	=47	=47	=47	=47	=47	=47	=47	=47
4BB-/	-las	.	4d\	-las	.	4B-\	-las	.	4f,<\	-las	.	.
4AA/	tranſ-	.	4c\	tranſ-	.	4c\	tranſ-	.	4a\	tranſ-	.	.
4BB-/	-mi-	.	4B-\	-mi-	.	4d\	-mi-	.	4g\	-mi-	.	.
4C/	-ſit	.	4G/	-ſit	.	4c\	-ſit	.	4g\	-sit	.	.
=48	=48	=48	=48	=48	=48	=48	=48	=48	=48	=48	=48	=48
4D\	aſ-	.	4d\	aſ-	.	4B-\	aſ-	.	4f\	aſ-	.	.
4F\	-tris	.	4A/	-tris	.	4c\	-tris	.	4f\	-tris,	.	.
4.C/	Cae-	.	4.G/	Cae-	.	4.c\	Cae-	.	4.f\	cae-	.	.
8C/	-li-	.	8G/	-li-	.	8c\	-li-	.	8e\	-li-	.	.
=49	=49	=49	=49	=49	=49	=49	=49	=49	=49	=49	=49	=49
4FF/	-tum	.	4A/	-tum	.	8c\	-tum	.	4f,<\	-tu(m),	.	.
.	.	.	.	.	.	8c\	lo-	.	.	.	.	.
4BB-/	lo-	.	4B-/	lo-	.	4.d\	-ca-	.	4f\	lo-	.	.
4.E-X\	-ca-	.	4G/	-ca-	.	.	.	.	4.g\	-ca-	.	.
.	.	.	.	.	.	8c\	-te	.	.	.	.	.
.	.	.	8G/	-te	.	4B-\	nos	.	.	.	.	.
8D\	-te	.	8G/	lo-	.	.	.	.	8f\	-te	.	.
=50	=50	=50	=50	=50	=50	=50	=50	=50	=50	=50	=50	=50
4C/	nos	.	4.c\	-ca-	.	4B-\	lo-	.	4en\	nos	.	.
*	*	*	*	*	*	*	*	*	*	*ij	*	*
4C/	lo-	.	.	.	.	4.e-X\	-ca-	.	4g\	lo-	.	.
.	.	.	8B-\	-te	.	.	.	.	.	.	.	.
4.F\	-ca-	.	4A\	nos	.	.	.	.	4.a\	-ca-	.	.
.	.	.	.	.	.	8d\	-te	.	.	.	.	.
.	.	.	4A\	lo-	.	8c\	nos	.	.	.	.	.
8E\	-te	.	.	.	.	8c\	lo-	.	8g\	-te	.	.
=51	=51	=51	=51	=51	=51	=51	=51	=51	=51	=51	=51	=51
2.D\	nos	.	4.d\	-ca-	.	4.d\	-ca-	.	8f,<\	nos	.	.
*	*	*	*	*	*	*	*	*	*	*Xij	*	*
.	.	.	.	.	.	.	.	.	8f\	lo-	.	.
.	.	.	.	.	.	.	.	.	8f\	-ca-	.	.
.	.	.	8c\	-te	.	8d\	-te	.	8e\	-te	.	.
.	.	.	4B-\	nos	.	4d\	Nos	.	4d\	nos	.	.
4F\	in	.	4A\	in	.	4d\	in	.	4a\	in	.	.
=52	=52	=52	=52	=52	=52	=52	=52	=52	=52	=52	=52	=52
4G\	ſe-	.	(4B-\	ſe-	.	4.d\	ſe-	.	8g\L	se-	.	.
.	.	.	.	.	.	.	.	.	8f\J	.	.	.
!	!	!	!	!	!	!	!	!	!LO:TX:a:t=P:problem:♮ above	!	!	!
8.A\	.	.	8.A\)	.	.	.	.	.	8.en\	.	.	.
.	.	.	.	.	.	8c#X\	-di-	.	.	.	.	.
16A\	-di-	.	16A\	-di-	.	.	.	.	16e\	-di-	.	.
4D/	-bus	.	4A\	-bus	.	4d\	-b(us)	.	4f#X,<\	-b(us).	.	.
4G\	lo-	.	4B-\	lo-	.	4d\	lo-	.	4g\	lo-	.	.
=53	=53	=53	=53	=53	=53	=53	=53	=53	=53	=53	=53	=53
4.E-X\	-ca-	.	4.B-\	-ca-	.	4.e-X\	-ca-	.	2g\	-ca-	.	.
8C/	-te	.	8c\	-te	.	8e-\	-te	.	.	.	.	.
!LO:N:acc=#	!	!	!	!	!	!	!	!	!	!	!	!
4BBn/	nos	.	4d\	nos	.	4d\	nos	.	4d,<\	-te	.	.
*	*	*	*	*ij	*	*	*	*	*	*ij	*	*
4BB/	lo-	.	4G/	lo-	.	4d\	lo-	.	4g\	lo-	.	.
=54	=54	=54	=54	=54	=54	=54	=54	=54	=54	=54	=54	=54
4.C/	-ca-	.	4.G/	-ca-	.	4.c\	-ca-	.	4.e-X\	-ca-	.	.
8C/	-te	.	8G/	-te	.	8c\	-te	.	8c\	-te	.	.
*	*	*	*	*	*	*	*	*	*	*Xij	*	*
4GG/	nos	.	4B-/	nos	.	4B-\	nos	.	4d\	nos	.	.
*	*	*	*	*Xij	*	*	*	*	*	*	*	*
4BB-/	in	.	4G/	in	.	4d\	in	.	4g\	in	.	.
=55	=55	=55	=55	=55	=55	=55	=55	=55	=55	=55	=55	=55
2.D/	ſe-	.	4A\	ſe-	.	4.d\	ſe-	.	2.g\	se-	.	.
.	.	.	8B-\L	.	.	.	.	.	.	.	.	.
.	.	.	8c\J	.	.	16c\LL	.	.	.	.	.	.
.	.	.	.	.	.	16B-\JJ	.	.	.	.	.	.
.	.	.	4.d\	.	.	4.A\	.	.	.	.	.	.
4D/	-di-	.	.	.	.	.	.	.	4f#X\	-di-	.	.
.	.	.	8c\	-di-	.	8A\	-di-	.	.	.	.	.
=56	=56	=56	=56-	=56	=56	=56-	=56	=56	=56	=56	=56	=56
!	!	!	!LO:N:acc=#	!	!	!LO:N:acc=#	!	!	!	!	!	!
1GG;	-bus	.	1Bn;;	-bus	.	1Bn;;	-bus	.	1g	-b(us).	.	.
!LO:LB:g=original	!	!	!LO:LB:g=original	!	!	!LO:LB:g=original	!	!	!LO:LB:g=original	!	!	!
=57||	=57||	=57||	=57||	=57||	=57||	=57||	=57||	=57||	=57||	=57||	=57||	=57||
*M3/1	*	*	*M3/1	*	*	*M3/1	*	*	*M3/1	*	*	*
*	*verse6	*	*	*verse6	*	*	*verse6	*	*	*verse6	*	*
1G	6_Au-	.	1B-	6_Au-	.	1d	6_Au-	.	1g	6_Au-	.	.
1B-	-fer-	.	1B-	-fer-	.	1d	-fer-	.	1fn	-fer-	.	.
1F	-te	.	1A	-te	.	1c	-te	.	1f	-te	.	.
=58	=58	=58	=58	=58	=58	=58	=58	=58	=58	=58	=58	=58
0G	gen-	.	0G	gen-	.	0B-	gen-	.	0d	gen-	.	.
1E-X	-tem	.	1G	-tem	.	1c	-tem	.	1g	-tem	.	.
=59	=59	=59	=59	=59	=59	=59	=59	=59	=59	=59	=59	=59
1.D	per-	.	1.A	per-	.	1.d	per-	.	1.f#X	per-	.	.
2D/	-fi-	.	2A/	-fi-	.	2d\	-fi-	.	2f#\	-fi-	.	.
1D	-dam	.	1A	-dam	.	1d	-dam	.	1f#	-dam,	.	.
=60	=60	=60	=60	=60	=60	=60	=60	=60	=60	=60	=60	=60
1BB-	Cre-	.	1B-	cre-	.	1d	cre-	.	1fn	cre-	.	.
1.E-X	-den-	.	1.G	-den-	.	1.c	-den-	.	1.g	-den-	.	.
2F\	-ti-	.	2A/	.	.	2c\	-ti-	.	4f\	.	.	.
!	!	!	!	!	!	!	!	!	!LO:SIC:v:s=4e-	!	!	!
.	.	.	.	.	.	.	.	.	4e\	.	.	.
=61	=61	=61	=61	=61	=61	=61	=61	=61	=61	=61	=61	=61
1.G	-um	.	2B-\	.	.	1.B-	-um	.	1.d	.	.	.
.	.	.	2c\	.	.	.	.	.	.	.	.	.
.	.	.	2B-\	-ti-	.	.	.	.	.	.	.	.
2A\	.	.	4A/	.	.	2c\	.	.	2c/	-ti-	.	.
.	.	.	4G/	.	.	.	.	.	.	.	.	.
1B-	.	.	1F	-um	.	1d	.	.	1B-,<	-um	.	.
=62	=62	=62	=62	=62	=62	=62	=62	=62	=62	=62	=62	=62
1D	de	.	1B-	de	.	1d	de	.	1f	de	.	.
1.F	fi-	.	1.B-	fi-	.	1.c	fi-	.	1.f	fi-	.	.
2F\	-ni-	.	2A\	-ni-	.	2c\	-ni-	.	2f\	-ni-	.	.
=63	=63	=63	=63-	=63	=63	=63-	=63	=63	=63	=63	=63	=63
0.BB-	-bus	.	0.B-	-bus	.	0.d	-bus	.	0.f,<	-bus:	.	.
=64	=64	=64	=64	=64	=64	=64	=64	=64	=64	=64	=64	=64
1BB-	Ut	.	1B-	Ut	.	1d	Ut	.	1f	Ut	.	.
1D	U-	.	1B-	U-	.	1d	u-	.	1f	u-	.	.
!	!	!	!	!	!	!	!	!	!LO:SIC:v:t=custos c	!	!	!
1E	-nus	.	1G	-nus	.	1c	-nus	.	1g	-n(us)	.	.
=65	=65	=65	=65-	=65	=65	=65-	=65	=65	=65	=65	=65	=65
0F	om-	.	0A	om-	.	0c	om-	.	1.c	om-	.	.
.	.	.	.	.	.	.	.	.	2d\	.	.	.
0E-X	-nes	.	0c	-nes	.	1c	-nes	.	[<1e-X	-nes,	.	.
=66-	=66	=66	=66-	=66	=66	=66	=66	=66	=66	=66	=66	=66
*	*	*	*	*	*	*	*	*	*rscale:1/2	*	*	*
!	!	!	!	!	!	!	!	!	!LO:TX:t=P:problem:wartości rytmiczne wydłużone o połowę ze względu na zapis innych głosów	!	!	!
.	.	.	.	.	.	0c	u-	.	1e-]	.	.	.
1.G	U-	.	1.G	U-	.	.	.	.	1.d	u-	.	.
.	.	.	.	.	.	1B-	-ni-	.	.	.	.	.
2G\	-ni-	.	2G/	-ni-	.	.	.	.	2d\	-ni-	.	.
=67	=67	=67	=67	=67	=67	=67-	=67	=67	=67	=67	=67	=67
*	*	*	*col	*	*	*	*	*	*	*	*	*
0C	-cum	.	1G	-cum	.	0c	-cum	.	0e	-cum,	.	.
.	.	.	1c	O-	.	.	.	.	.	.	.	.
1c	O-	.	0G	-ui-	.	1e-X	O-	.	1rf	.	.	.
=68	=68	=68	=68-	=68	=68	=68	=68	=68	=68	=68	=68	=68
0G	-ui-	.	.	.	.	0B-	-ui-	.	1rf	.	.	.
.	.	.	1G	-le	.	.	.	.	1rf	.	.	.
1G	-le	.	0B-	nos	.	1B-	-le	.	1g	O-	.	.
=69	=69	=69	=69-	=69	=69	=69	=69	=69	=69	=69	=69	=69
0B-	nos	.	.	.	.	0d	nos	.	0d	-vi-	.	.
.	.	.	1B-	O-	.	.	.	.	.	.	.	.
1B-	O-	.	1F	-ui-	.	1d	O-	.	1d	-le	.	.
=70	=70	=70	=70	=70	=70	=70	=70	=70	=70	=70	=70	=70
1F	-ui-	.	1F	-le	.	1A	-ui-	.	0f,<	nos,	.	.
1F	-le	.	0A	nos	.	1A	-le	.	.	.	.	.
1A	nos	.	.	.	.	1c	nos	.	1f	O-	.	.
*	*	*	*Xcol	*	*	*	*	*	*	*	*	*
=71	=71	=71	=71	=71	=71	=71	=71	=71	=71	=71	=71	=71
1.B-	Pa-	.	1.F	Pa-	.	1.d	Paſ-	.	1d	-vi-	.	.
.	.	.	.	.	.	.	.	.	1d	-le	.	.
2A\	.	.	4G/	.	.	2c\	.	.	.	.	.	.
.	.	.	4A/	.	.	.	.	.	.	.	.	.
1G	-ſtor	.	2B-\	.	.	1B-	-tor	.	1g	nos	.	.
.	.	.	2c\	.	.	.	.	.	.	.	.	.
=72	=72	=72	=72	=72	=72	=72	=72	=72	=72	=72	=72	=72
1F	re-	.	1d	-ſtor	.	1A	re-	.	1.a	Paſ-	.	.
0A	.	.	1.d	re-	.	0A	.	.	.	.	.	.
.	.	.	.	.	.	.	.	.	2en\	-tor	.	.
.	.	.	.	.	.	.	.	.	1e	re-	.	.
.	.	.	2c#X\	.	.	.	.	.	.	.	.	.
=73	=73	=73	=73-	=73	=73	=73-	=73	=73	=73	=73	=73	=73
0D	-gat	.	0.d	-gat	.	0A	-gat	.	0f,<	-gat,	.	.
1G	O-	.	.	.	.	1r	.	.	1d	o-	.	.
=74	=74	=74	=74	=74	=74	=74	=74	=74	=74	=74	=74	=74
!LO:SIC:l:s=vi	!	!	!	!	!	!	!	!	!	!	!	!
*	*	*	*col	*	*	*	*	*	*	*	*	*
0D	-ui-	.	1d	O-	.	1re	.	.	0f	-vi-	.	.
!	!	!	!LO:SIC:l:s=vi	!	!	!	!	!	!	!	!	!
.	.	.	0A	-ui-	.	1re	.	.	.	.	.	.
1D	-le	.	.	.	.	1d	O-	.	1f	-le	.	.
=75	=75	=75	=75	=75	=75	=75	=75	=75	=75	=75	=75	=75
!	!	!	!	!	!	!LO:SIC:l:s=vi	!	!	!	!	!	!
0F	nos	.	1A	-le	.	0A	-ui-	.	0a,<	nos	.	.
.	.	.	0c	nos	.	.	.	.	.	.	.	.
1F	O-	.	.	.	.	1A	-le	.	1a	O-	.	.
=76	=76	=76	=76	=76	=76	=76	=76	=76	=76	=76	=76	=76
*	*	*	*	*ij	*	*	*	*	*	*	*	*
!LO:SIC:l:s=vi	!	!	!	!	!	!	!	!	!	!	!	!
0C	-ui-	.	1c	O-	.	0c	nos	.	0e	-vi-	.	.
!	!	!	!LO:SIC:l:s=vi	!	!	!	!	!	!	!	!	!
.	.	.	0G	-ui-	.	.	.	.	.	.	.	.
!	!	!	!	!	!	!	!	!	!LO:SIC:v:t=custos g	!	!	!
1C	-le	.	.	.	.	1c	O-	.	1e	-le	.	.
!	!	!	!	!	!	!	!	!	!LO:LB:g=original	!	!	!
=77	=77	=77	=77	=77	=77	=77	=77	=77	=77	=77	=77	=77
0E-X	nos	.	1G	-le	.	0G	-vi-	.	0g	nos,	.	.
.	.	.	0B-	nos	.	.	.	.	.	.	.	.
1E-	.	.	.	.	.	1G	-le	.	1g	Paſ-	.	.
*	*	*	*Xcol	*Xij	*	*	*	*	*	*	*	*
=78	=78	=78	=78-	=78	=78	=78	=78	=78	=78	=78	=78	=78
1.BB-	Pa-	.	1.B-	Paſ-	.	1.d	Nos	.	0f	-tor	.	.
4C/	.	.	2A/	.	.	2c\	.	.	.	.	.	.
4D/	.	.	.	.	.	.	.	.	.	.	.	.
1E	-tor	.	1G	tor	.	1B-	Paſ-	.	0e	re-	.	.
=79	=79	=79	=79-	=79	=79	=79	=79	=79	=79-	=79	=79	=79
1C	re-	.	0G	re-	.	1A	-tor	.	.	.	.	.
0D	.	.	.	.	.	0A	re-	.	0d	.	.	.
!	!	!	!LO:N:acc=#	!	!	!	!	!	!	!	!	!
!	!	!	!LO:TX:b:t=P:problem:# below	!	!	!	!	!	!	!	!	!
.	.	.	1Fn	.	.	.	.	.	.	.	.	.
=80-	=80	=80	=80-	=80	=80	=80-	=80	=80	=80	=80	=80	=80
!	!	!	!	!	!	!LO:N:acc=#	!	!	!	!	!	!
!	!	!	!	!	!	!LO:TX:a:t=P:problem:# above	!	!	!	!	!	!
00.GGl;;/	-gat	.	00.Gl;;\	-gat	.	00.Bnl\	-gat	.	00.dl\	-gat.	.	.
==	==	==	==	==	==	==	==	==	==	==	==	==
*-	*-	*-	*-	*-	*-	*-	*-	*-	*-	*-	*-	*-
!!!system-decoration: [g1]
!!!RDF**kern: > = above
!!!RDF**kern: < = below
!!!RDF**kern: l = terminal long
!!!ENC: Andrzej Kubiczek
!!!END: 2021-04-02
!!!ENC: Kamil Watkowski
!!!END: 2021-03-24
